X: 10762
T: 2. ANYBODY'S HORNPIPE
R: hornpipe
B: K\"ohler's Violin Repository, v.1, 1885 p.76 #2
F: http://www.archive.org/details/klersviolinrepos01edin
Z: 2012 John Chambers <jc:trillian.mit.edu>
M: C|
L: 1/8
K: A
((3efg) |\
a>a(e>c) (A>c)f>e | (d>c)B>A (G>B)E>E | (A>B)c>d (e>c)A>c | (B>e)^d>f e>e(f>g) |
a>a(e>c) (A>c)f>e | (d>c)B>A (G>B)E>B | (A>a)e>c (f>{gf}e)d>c | A2c2A2 :||: u(d>c) |
(B>c)B>A (G>E)F>G | (A>B)c>d (e>c)A>c | (e>c)d>e (f>e)d>c | (B>e)^d>f e>e(f>g) |
((3aba) ec ((3fgf) dB | ((3efe) cA ((3ded) BG | (A>a)e>c (f>{gf}e)d>B | A2c2A2 :|

%%sep 2 1 500

